Simply black circles/scalable/mimes/text-x-java-source.svg

<?xml version="1.0" encoding="UTF-8" standalone="no"?>
<!-- Created with Inkscape (http://www.inkscape.org/) -->

<svg
   xmlns:dc="http://purl.org/dc/elements/1.1/"
   xmlns:cc="http://creativecommons.org/ns#"
   xmlns:rdf="http://www.w3.org/1999/02/22-rdf-syntax-ns#"
   xmlns:svg="http://www.w3.org/2000/svg"
   xmlns="http://www.w3.org/2000/svg"
   xmlns:xlink="http://www.w3.org/1999/xlink"
   xmlns:sodipodi="http://sodipodi.sourceforge.net/DTD/sodipodi-0.dtd"
   xmlns:inkscape="http://www.inkscape.org/namespaces/inkscape"
   version="1.1"
   width="48"
   height="48"
   id="svg21744"
   sodipodi:docname="text-x-java-source.svg"
   inkscape:version="0.92.3 (2405546, 2018-03-11)">
  <sodipodi:namedview
     pagecolor="#ffffff"
     bordercolor="#666666"
     borderopacity="1"
     objecttolerance="10"
     gridtolerance="10"
     guidetolerance="10"
     inkscape:pageopacity="0"
     inkscape:pageshadow="2"
     inkscape:window-width="1366"
     inkscape:window-height="690"
     id="namedview44"
     showgrid="false"
     inkscape:zoom="7.2920387"
     inkscape:cx="30.056619"
     inkscape:cy="27.53002"
     inkscape:window-x="0"
     inkscape:window-y="28"
     inkscape:window-maximized="1"
     inkscape:current-layer="svg21744"
     inkscape:snap-global="false" />
  <defs
     id="defs21746">
    <linearGradient
       x1="525.4375"
       y1="836.1875"
       x2="516.65625"
       y2="828.5"
       id="linearGradient14113"
       xlink:href="#linearGradient14494-2-7"
       gradientUnits="userSpaceOnUse"
       gradientTransform="translate(-125.5,-1702.64)" />
    <linearGradient
       id="linearGradient14494-2-7">
      <stop
         id="stop14496-9-3"
         style="stop-color:#dc85e9;stop-opacity:1"
         offset="0" />
      <stop
         id="stop14498-9-7"
         style="stop-color:#f2cbf8;stop-opacity:1"
         offset="1" />
    </linearGradient>
    <linearGradient
       x1="520.58502"
       y1="735.05206"
       x2="516.15179"
       y2="720.86298"
       id="linearGradient14115"
       xlink:href="#linearGradient14494-5"
       gradientUnits="userSpaceOnUse" />
    <linearGradient
       id="linearGradient14494-5">
      <stop
         id="stop14496-5"
         style="stop-color:#dc85e9;stop-opacity:1"
         offset="0" />
      <stop
         id="stop14498-1"
         style="stop-color:#f2cbf8;stop-opacity:1"
         offset="1" />
    </linearGradient>
    <linearGradient
       x1="525.4375"
       y1="836.1875"
       x2="516.65625"
       y2="828.5"
       id="linearGradient54948"
       xlink:href="#linearGradient14494-2-7"
       gradientUnits="userSpaceOnUse"
       gradientTransform="translate(-462.50049,-802.00385)" />
    <linearGradient
       x1="520.58502"
       y1="735.05206"
       x2="516.15179"
       y2="720.86298"
       id="linearGradient14109"
       xlink:href="#linearGradient14494-5"
       gradientUnits="userSpaceOnUse"
       gradientTransform="matrix(0.512535,0,0,0.615385,-202.35949,-422.92385)" />
    <linearGradient
       x1="525.4375"
       y1="836.1875"
       x2="516.65625"
       y2="828.5"
       id="linearGradient54952"
       xlink:href="#linearGradient14494-2-7"
       gradientUnits="userSpaceOnUse"
       gradientTransform="translate(-462.50049,-797.50385)" />
    <linearGradient
       x1="209.0625"
       y1="-765.46082"
       x2="209.0625"
       y2="-781.62268"
       id="linearGradient44039"
       xlink:href="#linearGradient15606-1"
       gradientUnits="userSpaceOnUse"
       gradientTransform="matrix(1.5,0,0,1.5,-364.99949,1176.9562)" />
    <linearGradient
       id="linearGradient15606-1">
      <stop
         id="stop15608-0"
         style="stop-color:#ffffff;stop-opacity:0.58823502"
         offset="0" />
      <stop
         id="stop15610-5"
         style="stop-color:#ffffff;stop-opacity:0.86274499"
         offset="1" />
    </linearGradient>
    <linearGradient
       x1="294.3429"
       y1="256.58133"
       x2="294.41818"
       y2="243.13852"
       id="linearGradient44042"
       xlink:href="#linearGradient10286-3"
       gradientUnits="userSpaceOnUse"
       gradientTransform="matrix(2.99213,0,0,3.00466,-830.71149,-727.44385)" />
    <linearGradient
       id="linearGradient10286-3">
      <stop
         id="stop10288-8"
         style="stop-color:#b3b3b3;stop-opacity:1"
         offset="0" />
      <stop
         id="stop10290-7"
         style="stop-color:#e6e6e6;stop-opacity:1"
         offset="1" />
    </linearGradient>
    <linearGradient
       x1="110.96875"
       y1="976.29968"
       x2="110.96875"
       y2="992.375"
       id="linearGradient43236"
       xlink:href="#linearGradient4145-42"
       gradientUnits="userSpaceOnUse" />
    <linearGradient
       id="linearGradient4145-42">
      <stop
         id="stop4953"
         style="stop-color:#e694bb;stop-opacity:1"
         offset="0" />
      <stop
         id="stop4955"
         style="stop-color:#d3819a;stop-opacity:1"
         offset="0.26238" />
      <stop
         id="stop4957"
         style="stop-color:#b25a64;stop-opacity:1"
         offset="0.704952" />
      <stop
         id="stop4959"
         style="stop-color:#98313d;stop-opacity:1"
         offset="1" />
    </linearGradient>
    <linearGradient
       x1="110.96875"
       y1="976.29968"
       x2="110.99982"
       y2="991.87488"
       id="linearGradient14097-7"
       xlink:href="#linearGradient4145-42"
       gradientUnits="userSpaceOnUse"
       gradientTransform="matrix(1,0,0,1.00011,0,-0.10551)" />
    <linearGradient
       x1="110.96875"
       y1="976.29968"
       x2="110.96875"
       y2="992.375"
       id="linearGradient21742"
       xlink:href="#linearGradient4145-42"
       gradientUnits="userSpaceOnUse"
       gradientTransform="matrix(1.00399,0,0,1.00959,-1.1658,-9.36636)" />
    <clipPath
       clipPathUnits="userSpaceOnUse"
       id="clipPath867">
      <g
         inkscape:label="Clip"
         id="use869">
        <path
           d="m 47.000614,3.0210706 v 0.75 40.5000404 0.72723 h 0.75 32.499399 0.75 v -0.72723 -25.50003 -0.3282 l -0.2344,-0.2343 -14.9059,-15.0000104 -0.1875,-0.1875 h -0.3282 -17.593399 z"
           id="path875"
           style="color:#000000;font-style:normal;font-variant:normal;font-weight:normal;font-stretch:normal;font-size:medium;line-height:normal;font-family:'Andale Mono';text-indent:0pt;text-align:start;text-decoration:none;text-decoration-line:none;letter-spacing:normal;word-spacing:normal;text-transform:none;direction:ltr;text-anchor:start;display:inline;overflow:visible;visibility:visible;fill:#000000;fill-opacity:1;fill-rule:nonzero;stroke:none;stroke-width:1;marker:none"
           inkscape:connector-curvature="0" />
      </g>
    </clipPath>
  </defs>
  <metadata
     id="metadata21749">
    <rdf:RDF>
      <cc:Work
         rdf:about="">
        <dc:format>image/svg+xml</dc:format>
        <dc:type
           rdf:resource="http://purl.org/dc/dcmitype/StillImage" />
        <dc:title></dc:title>
      </cc:Work>
    </rdf:RDF>
  </metadata>
  <path
     style="color:#000000;font-style:normal;font-variant:normal;font-weight:normal;font-stretch:normal;font-size:medium;line-height:normal;font-family:'Andale Mono';text-indent:0pt;text-align:start;text-decoration:none;text-decoration-line:none;letter-spacing:normal;word-spacing:normal;text-transform:none;direction:ltr;text-anchor:start;display:inline;overflow:visible;visibility:visible;fill:#1a1a1a;fill-opacity:1;stroke:none;stroke-width:5.99873972;marker:none"
     d="M 29.705078 -0.083984375 C 27.658234 -0.075805254 25.583576 0.00449542 25.1875 0.013671875 L 7 0.013671875 C 6.813106 -0.004321175 6.624454 -0.004321175 6.4375 0.013671875 C 5.062346 0.27607036 3.975341 1.6123101 4 3.0117188 L 4 45 C 4.00015 46.570313 5.429312 47.99985 7 48 L 41 48 C 42.570687 47.99985 43.99985 46.570313 44 45 L 44 18.818359 C 44.018 18.026395 44.215294 8.8914456 43.664062 8.3222656 L 34.054688 0.24804688 C 33.770027 -0.027426575 31.751922 -0.092163496 29.705078 -0.083984375 z M 31.195312 3.0097656 L 31.328125 10.513672 C 31.340155 11.195372 31.966379 11.80479 32.644531 11.792969 L 40.416016 11.65625 C 40.548988 11.674363 40.684161 11.672765 40.816406 11.650391 L 40.898438 14.679688 L 41 18.771484 L 41 44.271484 L 41 44.998047 L 40.25 44.998047 L 7.75 44.998047 L 7 44.998047 L 7 44.271484 L 7 3.7714844 L 7 3.0214844 L 7.75 3.0214844 L 25.34375 3.0214844 L 25.671875 3.0214844 L 31.195312 3.0097656 z M 17.542969 17.626953 C 15.975246 17.626953 14.923838 17.888415 14.388672 18.410156 C 13.859802 18.924847 13.595703 19.961357 13.595703 21.519531 L 13.595703 24.056641 C 13.595703 25.107174 13.425926 25.837161 13.085938 26.246094 C 12.752246 26.647976 12.134714 26.849609 11.234375 26.849609 L 10.658203 26.849609 L 10.658203 28.361328 L 11.234375 28.361328 C 12.128418 28.361328 12.745949 28.565677 13.085938 28.974609 C 13.425926 29.383542 13.595703 30.120912 13.595703 31.185547 L 13.595703 33.712891 C 13.595703 35.271064 13.859802 36.312243 14.388672 36.833984 C 14.923838 37.355726 15.975246 37.615234 17.542969 37.615234 L 18.128906 37.615234 L 18.128906 36.09375 L 17.486328 36.09375 C 16.598582 36.09375 16.018778 35.937178 15.748047 35.626953 C 15.477316 35.316728 15.341797 34.666004 15.341797 33.671875 L 15.341797 31.048828 C 15.341797 29.948941 15.201292 29.147074 14.917969 28.646484 C 14.634645 28.145895 14.142224 27.801693 13.443359 27.611328 C 14.135928 27.435064 14.62488 27.096293 14.908203 26.595703 C 15.197823 26.095113 15.341797 25.290532 15.341797 24.183594 L 15.341797 21.5625 C 15.341797 20.568371 15.477316 19.915693 15.748047 19.605469 C 16.018778 19.295244 16.598582 19.140625 17.486328 19.140625 L 18.128906 19.140625 L 18.128906 17.626953 L 17.542969 17.626953 z M 29.507812 17.626953 L 29.507812 19.140625 L 30.169922 19.140625 C 31.051372 19.140625 31.624237 19.295244 31.888672 19.605469 C 32.159403 19.908643 32.294922 20.56132 32.294922 21.5625 L 32.294922 24.183594 C 32.294922 25.290532 32.435427 26.095113 32.71875 26.595703 C 33.002073 27.096293 33.494495 27.435064 34.193359 27.611328 C 33.494495 27.801693 33.002073 28.145895 32.71875 28.646484 C 32.435427 29.147074 32.294922 29.948941 32.294922 31.048828 L 32.294922 33.671875 C 32.294922 34.680105 32.159403 35.335498 31.888672 35.638672 C 31.624237 35.941846 31.051372 36.09375 30.169922 36.09375 L 29.507812 36.09375 L 29.507812 37.615234 L 30.103516 37.615234 C 31.671238 37.615234 32.715707 37.355726 33.238281 36.833984 C 33.767152 36.312243 34.03125 35.271064 34.03125 33.712891 L 34.03125 31.185547 C 34.03125 30.120912 34.202981 29.383542 34.542969 28.974609 C 34.882957 28.565677 35.498535 28.361328 36.392578 28.361328 L 36.978516 28.361328 L 36.978516 26.849609 L 36.392578 26.849609 C 35.498535 26.849609 34.882957 26.647976 34.542969 26.246094 C 34.202981 25.837161 34.03125 25.107174 34.03125 24.056641 L 34.03125 21.519531 C 34.03125 19.961357 33.767152 18.924847 33.238281 18.410156 C 32.715707 17.888415 31.671238 17.626953 30.103516 17.626953 L 29.507812 17.626953 z M 22.822266 22.882812 L 22.822266 25.570312 L 24.814453 25.570312 L 24.814453 22.882812 L 22.822266 22.882812 z M 22.822266 31.396484 L 22.822266 33.216797 L 22.046875 36.599609 L 23.265625 36.599609 L 24.814453 33.216797 L 24.814453 31.396484 L 22.822266 31.396484 z "
     id="path14075" />
</svg>

<svg xmlns="http://www.w3.org/2000/svg" width="48" height="48"><defs><linearGradient id="a"><stop offset="0" stop-color="#dc85e9"/><stop offset="1" stop-color="#f2cbf8"/></linearGradient><linearGradient id="b"><stop offset="0" stop-color="#dc85e9"/><stop offset="1" stop-color="#f2cbf8"/></linearGradient><linearGradient id="c"><stop offset="0" stop-color="#fff" stop-opacity=".588"/><stop offset="1" stop-color="#fff" stop-opacity=".863"/></linearGradient><linearGradient id="d"><stop offset="0" stop-color="#b3b3b3"/><stop offset="1" stop-color="#e6e6e6"/></linearGradient><linearGradient id="e"><stop offset="0" stop-color="#e694bb"/><stop offset=".262" stop-color="#d3819a"/><stop offset=".705" stop-color="#b25a64"/><stop offset="1" stop-color="#98313d"/></linearGradient></defs><path style="line-height:normal;text-indent:0;text-align:start;text-decoration-line:none;text-transform:none;marker:none" d="M29.705-.084c-2.047.008-4.121.088-4.517.098H7a2.938 2.938 0 0 0-.563 0C5.063.276 3.975 1.612 4 3.012V45c0 1.57 1.43 3 3 3h34c1.57 0 3-1.43 3-3V18.818c.018-.792.215-9.927-.336-10.496L34.054.248c-.284-.275-2.302-.34-4.349-.332zm1.49 3.094l.133 7.504c.012.681.638 1.29 1.317 1.279l7.771-.137c.133.018.268.017.4-.006l.082 3.03L41 18.77v26.227H7V3.021h18.672l5.523-.011zM17.543 17.627c-1.568 0-2.62.261-3.154.783-.53.515-.793 1.551-.793 3.11v2.537c0 1.05-.17 1.78-.51 2.19-.334.401-.951.603-1.852.603h-.576v1.511h.576c.894 0 1.512.205 1.852.614.34.409.51 1.146.51 2.21v2.528c0 1.558.264 2.6.793 3.121.535.522 1.586.781 3.154.781h.586v-1.521h-.643c-.887 0-1.467-.157-1.738-.467-.27-.31-.406-.961-.406-1.955v-2.623c0-1.1-.14-1.902-.424-2.403-.283-.5-.776-.844-1.475-1.035.693-.176 1.182-.515 1.465-1.015.29-.5.434-1.305.434-2.412v-2.622c0-.994.135-1.646.406-1.957.27-.31.85-.464 1.738-.464h.643v-1.514h-.586zm11.965 0v1.514h.662c.881 0 1.454.154 1.719.464.27.304.406.956.406 1.957v2.622c0 1.107.14 1.911.424 2.412.283.5.775.84 1.474 1.015-.699.19-1.19.535-1.474 1.035-.284.501-.424 1.303-.424 2.403v2.623c0 1.008-.136 1.663-.406 1.967-.265.303-.838.455-1.72.455h-.661v1.521h.596c1.567 0 2.612-.26 3.134-.781.53-.522.793-1.563.793-3.121v-2.527c0-1.065.172-1.802.512-2.211.34-.41.956-.614 1.85-.614h.586V26.85h-.586c-.894 0-1.51-.202-1.85-.604-.34-.409-.512-1.139-.512-2.19V21.52c0-1.559-.264-2.595-.793-3.11-.522-.522-1.567-.783-3.134-.783h-.596zm-6.686 5.256v2.687h1.992v-2.687h-1.992zm0 8.513v1.82l-.775 3.384h1.219l1.548-3.383v-1.82h-1.992z" color="#000" font-weight="400" font-family="Andale Mono" overflow="visible" fill="#1a1a1a"/></svg>
